!!!COM: Music21
!!!OTL: Mazurca de Adelino
!!!OMV: pezas_mazurcas_mazurca-4_mazurca-de-adelino.musicxml
**kern
*I"Bagpipes
*I'Bag
*clefG^2
*k[]
*M3/4
*MM130
=1
!LO:TX:a:t=[quarter]=130
8cccL
8bbJ
8aaL
8ggJ
8aaL
8bbJ
=
8cccL
8ggJ
8eeL
8ccJ
8eeL
8ggJ
=
8ffL
8eeJ
8ffL
8ddJ
8bL
8aaJ
=
8ggL
8ffJ
8eeL
8ddJ
8ccL
8ggJ
=
8cccL
8bbJ
8aaL
8ggJ
8aaL
8bbJ
=
8cccL
8ggJ
8eeL
8ccJ
8eeL
8ggJ
!!linebreak:original
=
8ffL
8eeJ
8ffL
8ddJ
8bL
8ddJ
=
4cc
2cc
!!linebreak:original
=||
8ccL
8ddJ
8eeL
8ffJ
8ddL
8eeJ
=
8ccL
8ddJ
8eeL
8ffJ
8ddL
8eeJ
=
8ccL
8ddJ
8eeL
8ffJ
8ggL
8aaJ
=
4gg
2ff
=
8bL
8ccJ
8ddL
8eeJ
8ccL
8ddJ
=
8bL
8ccJ
8ddL
8eeJ
8ccL
8ddJ
=
8bL
8ccJ
8ddL
8eeJ
8ffL
8ggJ
!!linebreak:original
=
4ff
2ee
!!linebreak:original
=
8ccL
8ddJ
8eeL
8ffJ
8ddL
8eeJ
=
8ccL
8ddJ
8eeL
8ffJ
8ddL
8eeJ
=
8ccL
8ddJ
8eeL
8ffJ
8ggL
8aaJ
=
4gg
2ff
=
8aaL
8ggJ
8ffL
8ggJ
8aaL
8ffJ
=
8ggL
8ffJ
8eeL
8ffJ
8ggL
8eeJ
=
8ffL
8eeJ
8ddL
8eeJ
8ffL
8ddJ
=
4ee
2gg
!!linebreak:original
=
8aaL
8ggJ
8ffL
8ggJ
8aaL
8ffJ
=
8ggL
8ffJ
8eeL
8ffJ
8ggL
8eeJ
=
8ffL
8eeJ
8ddL
8ffJ
8eeL
8ddJ
=
4cc
2cc
=||
4cc
8ccL
8ddJ
8ee-XL
8ffJ
=
4gg
2gg
=
4aa-X
4gg
4ff
=
4gg
2ee-X
!!linebreak:original
=
4gg
8ffL
8ee-XJ
8ddL
8ffJ
!!linebreak:original
=
8ee-XL
8ddJ
2cc
=
4dd
4cc
4b
=
4dd
2cc
=||
4cc
8ccL
8ddJ
8ee-XL
8ffJ
=
4gg
2gg
=
4aa-X
4gg
4ff
=
4gg
2ee-X
=
4gg
8ffL
8ee-XJ
8ddL
8ffJ
!!linebreak:original
=
8ee-XL
8ddJ
2cc
=
4dd
4cc
4b
=
4dd
2cc
=||
*-
